X: 21707
T: Kiltycreen, The
R: reel
M: 4/4
K: Eminor
c|BEBE B2AF|DADF ADFA|BEBE B2AF|DFAF FEE2|
BEBE B2AF|DADF ADFA|B2Bd BAFA|B2AF E3:|
e|e2fe befe|dffd Adfd|e2fe befe|afde feed|
e2fe befe|dffd Adfd|efga bafb|afdf e3:|

